X:8753
T:Kratzinger
M:2/4
L:1/4
Q:1/4=100
R:ZwieFacher
O:Germany
K:C
M:3/4
 c2|B2 |A2 E|1 G> D G| A E:|2  G>c B| A2||!
c2|B2| A2 E|1 G> D G| A E:|2  G>c B| A2 ||!
|:c2|d2|e2| f>e d|e>d c|dB|GB|c2|d2|e2| f>e d| c2:|
